src/images/crypto-icon-svg/dcn.svg

<svg xmlns="http://www.w3.org/2000/svg" xmlns:xlink="http://www.w3.org/1999/xlink" width="32" height="32" viewBox="0 0 32 32">
  <defs>
    <circle id="dcn-a" cx="16" cy="16" r="16"/>
  </defs>
  <g fill="none" fill-rule="evenodd">
    <mask id="dcn-b" fill="#fff">
      <use xlink:href="#dcn-a"/>
    </mask>
    <use fill="#136485" xlink:href="#dcn-a"/>
    <path fill="#FFF" d="M21.1470337,32 C18.7608768,24.7296176 17.0101216,19.4189099 15.8947682,16.0678769 C15.8434805,16.0669978 15.7922805,16.0661187 15.7409929,16.0652396 C14.5649125,19.3717304 12.7749665,24.412784 10.3711548,31.1884003 L13.5172424,32 L4,32 L4.62318546,27.8157548 C4.76267489,27.5869799 4.95691278,27.2360977 4.9791211,27.2009758 C7.36702247,23.4277011 9.51172384,19.5230857 11.126891,15.3512176 C12.8402499,10.9255473 14.2108142,6.38400879 15.517817,1.82356923 C15.6344197,1.41697582 15.7730279,1.01662418 15.9013786,0.613371429 C16.0387595,0.771789011 16.0892581,0.918602198 16.1311649,1.06778901 C16.951154,3.9935033 17.7444033,6.92712967 18.5949896,9.84387692 C20.1444033,15.156844 22.3241732,20.1971077 25.2122389,24.9208 C25.576133,25.5160234 26.2156935,26.5424234 27.1309204,28 C27.1716528,27.9295474 27.212112,27.8592363 27.252298,27.7890667 L27.5,32 L21.1470337,32 Z M15.9514996,0.0485003567 L16,0 L16.0750102,0.0487566147 C16.0338938,0.0485211557 15.9927235,0.0484355223 15.9514996,0.0485003567 Z" mask="url(#dcn-b)"/>
  </g>
</svg>

<svg xmlns="http://www.w3.org/2000/svg" xmlns:xlink="http://www.w3.org/1999/xlink" width="32" height="32"><defs><circle id="a" cx="16" cy="16" r="16"/></defs><g fill="none" fill-rule="evenodd"><mask id="b" fill="#fff"><use xlink:href="#a"/></mask><use fill="#136485" xlink:href="#a"/><path fill="#FFF" d="M21.147 32a4486.308 4486.308 0 0 0-5.252-15.932l-.154-.003a21751.8 21751.8 0 0 0-5.37 15.123l3.146.812H4l.623-4.184c.14-.229.334-.58.356-.615 2.388-3.773 4.533-7.678 6.148-11.85 1.713-4.425 3.084-8.967 4.39-13.527.117-.407.256-.807.384-1.21.138.158.188.305.23.454.82 2.926 1.613 5.86 2.464 8.776 1.55 5.313 3.73 10.353 6.617 15.077.364.595 1.004 1.621 1.919 3.079l.121-.21L27.5 32h-6.353zM15.951.049L16 0l.075.049h-.124z" mask="url(#b)"/></g></svg>
